svgs/thin/caret-up.svg

<svg xmlns="http://www.w3.org/2000/svg" viewBox="0 0 320 512"><!--! Font Awesome Pro 6.3.0 by @fontawesome - https://fontawesome.com License - https://fontawesome.com/license (Commercial License) Copyright 2023 Fonticons, Inc. --><path d="M313.4 279.5l-136-144C172.9 130.7 166.6 128 160 128s-12.91 2.721-17.45 7.52l-136 144C2.26 284.1 0 289.1 0 296C0 309.2 10.67 320 24 320h272C309.3 320 320 309.2 320 296C320 289.1 317.7 284.1 313.4 279.5zM296 304h-272C19.59 304 16 300.4 16 296c0-2.055 .7754-4.006 2.184-5.498l136-144C155.7 144.9 157.8 144 160 144s4.312 .9141 5.816 2.506l136 144C303.2 291.1 304 293.9 304 296C304 300.4 300.4 304 296 304z"/></svg>

<svg xmlns="http://www.w3.org/2000/svg" viewBox="0 0 320 512"><!-- Font Awesome Pro 6.0.0-alpha2 by @fontawesome - https://fontawesome.com License - https://fontawesome.com/license (Commercial License) --><path d="M313.449 279.52L177.449 135.52C172.916 130.721 166.604 128 160 128S147.086 130.721 142.553 135.52L6.553 279.52C2.26 284.064 0 289.99 0 296.004C0 309.162 10.668 320 24 320H296C309.316 320 320 309.18 320 296.004C320 289.99 317.74 284.064 313.449 279.52ZM296 304H24C19.59 304 16 300.412 16 296.004C16 293.949 16.775 291.998 18.184 290.506L154.184 146.506C155.689 144.914 157.809 144 160 144S164.312 144.914 165.816 146.506L301.816 290.506C303.225 291.998 304 293.949 304 296.004C304 300.412 300.412 304 296 304Z"/></svg>
